X: 403
M: 6/8
L: 1/8
K: Ador
E |\
cBc dcd | ede a2g | edB ABd | edB A2 :|
|: g |\
a2A ABA | a2A A2f | g2G GAG | BAB GAB |\
cBc dcd | ede a2g | edB ABd | e2A A2 :|
